X: 2
T: The Glen Road To Carrick
R: reel
M: 4/4
L: 1/8
K: Dmaj
FD~D2 FDGD|FDFG ABAG|FD~D2 FDFG|Ad=cA G2AG|FD~D2 FDGD|FDFG ABAG|FD~D2 FDFG|Ad=cA G2FG|Addc AdAG|Addc A2FG|Addc AdAG|AdcA G2FG|Addc AdAG|Addc A2(3ABc|defd AGFD|AdcA G2eg||:fd~d2 fdeg|fdfg abag|fd~d2 fdef|gabg efge:|fdec dcAG|FDFG A2(3ABc|defd AGFD|Ad=cA G2eg|fdec dcAG|FDFG A2(3ABc|defd AGFD|Ad=cA G2(3ABc|dD~D2 AD~D2|dD~D2 A2(3ABc|dD~D2 AD~D2|GE=CE G2(3ABc|dD~D2 AD~D2|dD~D2 A2(3ABc|defd AGFD|AD=cA G2AG|


Tune 2285	Setting 15646

